packages/ffe-icons/icons/open/400/sm/keyboard_previous_language.svg

<svg xmlns="http://www.w3.org/2000/svg" height="20" viewBox="0 -960 960 960" width="20"><path d="M168-96q-29.7 0-50.85-21.15Q96-138.3 96-168v-408q0-29.7 21.15-50.85Q138.3-648 168-648h624q29.7 0 50.85 21.15Q864-605.7 864-576v408q0 29.7-21.15 50.85Q821.7-96 792-96H168Zm0-72h624v-408H168v408Zm203.96-48h215.757Q603-216 613.5-226.289q10.5-10.29 10.5-25.5Q624-267 613.662-277.5 603.323-288 588.04-288H372.283Q357-288 346.5-277.711q-10.5 10.29-10.5 25.5Q336-237 346.338-226.5 356.677-216 371.96-216ZM168-168v-408 408Zm198-624h33q15.3 0 25.65 10.289 10.35 10.29 10.35 25.5Q435-741 424.65-730.5 414.3-720 399-720H279q-15.3 0-25.65-10.35Q243-740.7 243-756v-120q0-15.3 10.289-25.65 10.29-10.35 25.5-10.35Q294-912 304.5-901.65 315-891.3 315-876v30q33.684-31.377 76.842-48.689Q435-912 483-912q78.835 0 140.917 46Q686-820 710-746q4 11.267-5.92 18.633-9.92 7.367-24 7.367T653-726q-13-6-19-19-20-43-61-69t-90-26q-33.571 0-63.786 12.5Q389-815 366-792ZM251.789-456Q267-456 277.5-466.289q10.5-10.29 10.5-25.5Q288-507 277.711-517.5q-10.29-10.5-25.5-10.5Q237-528 226.5-517.711q-10.5 10.29-10.5 25.5Q216-477 226.289-466.5q10.29 10.5 25.5 10.5Zm114 0Q381-456 391.5-466.289q10.5-10.29 10.5-25.5Q402-507 391.711-517.5q-10.29-10.5-25.5-10.5Q351-528 340.5-517.711q-10.5 10.29-10.5 25.5Q330-477 340.289-466.5q10.29 10.5 25.5 10.5Zm114 0Q495-456 505.5-466.289q10.5-10.29 10.5-25.5Q516-507 505.711-517.5q-10.29-10.5-25.5-10.5Q465-528 454.5-517.711q-10.5 10.29-10.5 25.5Q444-477 454.289-466.5q10.29 10.5 25.5 10.5Zm114 0Q609-456 619.5-466.289q10.5-10.29 10.5-25.5Q630-507 619.711-517.5q-10.29-10.5-25.5-10.5Q579-528 568.5-517.711q-10.5 10.29-10.5 25.5Q558-477 568.289-466.5q10.29 10.5 25.5 10.5Zm114 0Q723-456 733.5-466.289q10.5-10.29 10.5-25.5Q744-507 733.711-517.5q-10.29-10.5-25.5-10.5Q693-528 682.5-517.711q-10.5 10.29-10.5 25.5Q672-477 682.289-466.5q10.29 10.5 25.5 10.5Zm-456 120Q267-336 277.5-346.289q10.5-10.29 10.5-25.5Q288-387 277.711-397.5q-10.29-10.5-25.5-10.5Q237-408 226.5-397.711q-10.5 10.29-10.5 25.5Q216-357 226.289-346.5q10.29 10.5 25.5 10.5Zm114 0Q381-336 391.5-346.289q10.5-10.29 10.5-25.5Q402-387 391.711-397.5q-10.29-10.5-25.5-10.5Q351-408 340.5-397.711q-10.5 10.29-10.5 25.5Q330-357 340.289-346.5q10.29 10.5 25.5 10.5Zm114 0Q495-336 505.5-346.289q10.5-10.29 10.5-25.5Q516-387 505.711-397.5q-10.29-10.5-25.5-10.5Q465-408 454.5-397.711q-10.5 10.29-10.5 25.5Q444-357 454.289-346.5q10.29 10.5 25.5 10.5Zm114 0Q609-336 619.5-346.289q10.5-10.29 10.5-25.5Q630-387 619.711-397.5q-10.29-10.5-25.5-10.5Q579-408 568.5-397.711q-10.5 10.29-10.5 25.5Q558-357 568.289-346.5q10.29 10.5 25.5 10.5ZM672-372.211Q672-357 682.289-346.5q10.29 10.5 25.5 10.5Q723-336 733.5-346.289q10.5-10.29 10.5-25.5Q744-387 733.711-397.5q-10.29-10.5-25.5-10.5Q693-408 682.5-397.711q-10.5 10.29-10.5 25.5Z"/></svg>

<svg xmlns="http://www.w3.org/2000/svg" height="20" viewBox="0 -960 960 960" width="20"><path d="M168-96q-29.7 0-50.85-21.15Q96-138.3 96-168v-408q0-29.7 21.15-50.85Q138.3-648 168-648h624q29.7 0 50.85 21.15Q864-605.7 864-576v408q0 29.7-21.15 50.85Q821.7-96 792-96H168Zm0-72h624v-408H168v408Zm203.96-48h215.76q15.28 0 25.78-10.29 10.5-10.29 10.5-25.5t-10.34-25.71Q603.32-288 588.04-288H372.28q-15.28 0-25.78 10.29-10.5 10.29-10.5 25.5t10.34 25.71q10.34 10.5 25.62 10.5ZM168-168v-408 408Zm198-624h33q15.3 0 25.65 10.29Q435-771.42 435-756.21t-10.35 25.71Q414.3-720 399-720H279q-15.3 0-25.65-10.35Q243-740.7 243-756v-120q0-15.3 10.29-25.65Q263.58-912 278.79-912t25.71 10.35Q315-891.3 315-876v30q33.68-31.38 76.84-48.69Q435-912 483-912q78.83 0 140.92 46Q686-820 710-746q4 11.27-5.92 18.63-9.92 7.37-24 7.37T653-726q-13-6-19-19-20-43-61-69t-90-26q-33.57 0-63.79 12.5Q389-815 366-792ZM251.79-456q15.21 0 25.71-10.29t10.5-25.5q0-15.21-10.29-25.71t-25.5-10.5q-15.21 0-25.71 10.29t-10.5 25.5q0 15.21 10.29 25.71t25.5 10.5Zm114 0q15.21 0 25.71-10.29t10.5-25.5q0-15.21-10.29-25.71t-25.5-10.5q-15.21 0-25.71 10.29t-10.5 25.5q0 15.21 10.29 25.71t25.5 10.5Zm114 0q15.21 0 25.71-10.29t10.5-25.5q0-15.21-10.29-25.71t-25.5-10.5q-15.21 0-25.71 10.29t-10.5 25.5q0 15.21 10.29 25.71t25.5 10.5Zm114 0q15.21 0 25.71-10.29t10.5-25.5q0-15.21-10.29-25.71t-25.5-10.5q-15.21 0-25.71 10.29t-10.5 25.5q0 15.21 10.29 25.71t25.5 10.5Zm114 0q15.21 0 25.71-10.29t10.5-25.5q0-15.21-10.29-25.71t-25.5-10.5q-15.21 0-25.71 10.29t-10.5 25.5q0 15.21 10.29 25.71t25.5 10.5Zm-456 120q15.21 0 25.71-10.29t10.5-25.5q0-15.21-10.29-25.71t-25.5-10.5q-15.21 0-25.71 10.29t-10.5 25.5q0 15.21 10.29 25.71t25.5 10.5Zm114 0q15.21 0 25.71-10.29t10.5-25.5q0-15.21-10.29-25.71t-25.5-10.5q-15.21 0-25.71 10.29t-10.5 25.5q0 15.21 10.29 25.71t25.5 10.5Zm114 0q15.21 0 25.71-10.29t10.5-25.5q0-15.21-10.29-25.71t-25.5-10.5q-15.21 0-25.71 10.29t-10.5 25.5q0 15.21 10.29 25.71t25.5 10.5Zm114 0q15.21 0 25.71-10.29t10.5-25.5q0-15.21-10.29-25.71t-25.5-10.5q-15.21 0-25.71 10.29t-10.5 25.5q0 15.21 10.29 25.71t25.5 10.5ZM672-372.21q0 15.21 10.29 25.71t25.5 10.5q15.21 0 25.71-10.29t10.5-25.5q0-15.21-10.29-25.71t-25.5-10.5q-15.21 0-25.71 10.29t-10.5 25.5Z"/></svg>
